dist/images/grace/location1.svg

<svg width="126" height="126" viewBox="0 0 126 126" fill="none" xmlns="http://www.w3.org/2000/svg">
<circle cx="63" cy="63" r="61.5" stroke="#E2704C" stroke-width="3"/>
<g clip-path="url(#clip0)">
<path d="M91.6978 45.748H34.3017C33.3148 45.748 32.5146 46.5482 32.5146 47.5351C32.5146 48.5221 33.3148 49.3222 34.3017 49.3222H52.8248L41.5513 91.7535C41.2979 92.7073 41.8657 93.686 42.8197 93.9396C42.9735 93.9804 43.1278 94 43.2797 94C44.0701 94 44.7931 93.4713 45.0056 92.6713L56.5229 49.3222H69.5035L81.0238 92.6713C81.2773 93.6253 82.2564 94.1931 83.21 93.9394C84.1639 93.686 84.7317 92.7072 84.4782 91.7533L73.2019 49.3222H91.6979C92.6848 49.3222 93.485 48.5221 93.485 47.5351C93.485 46.5482 92.6848 45.748 91.6978 45.748Z" fill="#373737"/>
<path d="M63.0147 52.8965C62.0277 52.8965 61.2275 53.6966 61.2275 54.6836V56.5898C61.2275 57.5768 62.0277 58.377 63.0147 58.377C64.0016 58.377 64.8018 57.5768 64.8018 56.5898V54.6836C64.8018 53.6966 64.0017 52.8965 63.0147 52.8965Z" fill="#373737"/>
<path d="M63.0147 61.9509C62.0277 61.9509 61.2275 62.7511 61.2275 63.738V65.6443C61.2275 66.6312 62.0277 67.4314 63.0147 67.4314C64.0016 67.4314 64.8018 66.6312 64.8018 65.6443V63.738C64.8018 62.7511 64.0017 61.9509 63.0147 61.9509Z" fill="#373737"/>
<path d="M63.0147 71.0056C62.0277 71.0056 61.2275 71.8058 61.2275 72.7927V74.699C61.2275 75.6859 62.0277 76.4861 63.0147 76.4861C64.0016 76.4861 64.8018 75.6859 64.8018 74.699V72.7927C64.8018 71.8058 64.0017 71.0056 63.0147 71.0056Z" fill="#373737"/>
<path d="M63.0147 80.0603C62.0277 80.0603 61.2275 80.8605 61.2275 81.8474V83.7537C61.2275 84.7406 62.0277 85.5408 63.0147 85.5408C64.0016 85.5408 64.8018 84.7406 64.8018 83.7537V81.8474C64.8018 80.8605 64.0017 80.0603 63.0147 80.0603Z" fill="#373737"/>
<path d="M63.0147 89.1147C62.0277 89.1147 61.2275 89.9149 61.2275 90.9019V92.2126C61.2275 93.1996 62.0277 93.9998 63.0147 93.9998C64.0016 93.9998 64.8018 93.1996 64.8018 92.2126V90.9019C64.8018 89.9149 64.0017 89.1147 63.0147 89.1147Z" fill="#373737"/>
<path d="M34.3437 36.5742C35.4333 36.5742 36.6791 36.9882 37.3733 37.5808C37.9864 38.1042 38.8737 38.1523 39.5396 37.6988C40.62 36.9631 41.8853 36.5742 43.1983 36.5742C45.5024 36.5742 47.6577 37.8117 48.8231 39.8038C49.2896 40.6011 50.2867 40.9116 51.1235 40.5199C51.6829 40.2579 52.2826 40.1252 52.9062 40.1252C53.6158 40.1252 54.2891 40.2949 54.9074 40.6297C55.1779 40.7761 55.4694 40.8457 55.7569 40.8457C56.3849 40.8457 56.9938 40.5138 57.3202 39.9269C58.4703 37.8589 60.6523 36.5742 63.0149 36.5742C65.342 36.5742 67.5082 37.8302 68.6678 39.8519C69.1384 40.6723 70.1666 40.9839 71.0138 40.5628C71.5977 40.2723 72.2275 40.1252 72.8853 40.1252C73.5087 40.1252 74.1086 40.258 74.668 40.5199C75.5046 40.9117 76.502 40.6012 76.9684 39.8038C78.1339 37.8117 80.2892 36.5742 82.5933 36.5742C83.9063 36.5742 85.1717 36.9631 86.2522 37.6988C86.9183 38.1523 87.8054 38.1041 88.4184 37.5808C89.1787 36.9316 90.1488 36.5742 91.1501 36.5742C91.2785 36.5742 91.4082 36.58 91.5358 36.5915C92.5162 36.6804 93.3873 35.9548 93.4757 34.9718C93.5642 33.9887 92.8389 33.1201 91.8559 33.0317C91.6224 33.0106 91.3848 33 91.1501 33C89.7414 33 88.3656 33.383 87.1684 34.0954C85.7582 33.3758 84.1983 33 82.5933 33C79.5261 33 76.6297 34.415 74.7311 36.7705C74.1317 36.6245 73.5147 36.5508 72.8855 36.5508C72.208 36.5508 71.5461 36.6358 70.9053 36.8041C69.0075 34.4272 66.103 33 63.0149 33C59.8931 33 56.9752 34.4473 55.08 36.8603C54.3763 36.6562 53.643 36.5508 52.9061 36.5508C52.2769 36.5508 51.6599 36.6245 51.0605 36.7705C49.1619 34.415 46.2656 33 43.1983 33C41.5847 33 40.0169 33.3798 38.6008 34.1068C37.3586 33.4092 35.8237 33 34.3437 33C33.3568 33 32.5566 33.8001 32.5566 34.7871C32.5566 35.7741 33.3568 36.5742 34.3437 36.5742Z" fill="#373737"/>
</g>
<defs>
<clipPath id="clip0">
<rect width="61" height="61" fill="white" transform="translate(32.5 33)"/>
</clipPath>
</defs>
</svg>

<svg width="126" height="126" fill="none" xmlns="http://www.w3.org/2000/svg"><circle cx="63" cy="63" r="61.5" stroke="#E2704C" stroke-width="3"/><g clip-path="url(#clip0)" fill="#373737"><path d="M91.698 45.748H34.302a1.787 1.787 0 000 3.574h18.523L41.55 91.753a1.787 1.787 0 003.455.918l11.517-43.349h12.98l11.52 43.35a1.787 1.787 0 103.455-.919l-11.276-42.43h18.496a1.787 1.787 0 100-3.575z"/><path d="M63.015 52.897c-.987 0-1.788.8-1.788 1.787v1.906a1.787 1.787 0 003.575 0v-1.906c0-.987-.8-1.787-1.787-1.787zm0 9.053c-.987 0-1.788.801-1.788 1.788v1.906a1.787 1.787 0 003.575 0v-1.906c0-.987-.8-1.787-1.787-1.787zm0 9.056c-.987 0-1.788.8-1.788 1.787v1.906a1.787 1.787 0 003.575 0v-1.906c0-.987-.8-1.787-1.787-1.787zm0 9.054c-.987 0-1.788.8-1.788 1.787v1.907a1.787 1.787 0 003.575 0v-1.907c0-.986-.8-1.787-1.787-1.787zm0 9.055c-.987 0-1.788.8-1.788 1.787v1.31a1.787 1.787 0 003.575 0v-1.31c0-.987-.8-1.787-1.787-1.787zM34.344 36.574c1.09 0 2.335.414 3.03 1.007.612.523 1.5.571 2.166.118a6.474 6.474 0 013.658-1.125 6.542 6.542 0 015.625 3.23 1.787 1.787 0 002.3.716 4.171 4.171 0 011.783-.395c.71 0 1.383.17 2.001.505a1.787 1.787 0 002.413-.703 6.522 6.522 0 015.695-3.353 6.534 6.534 0 015.653 3.278 1.787 1.787 0 002.346.71 4.165 4.165 0 011.871-.437 4.17 4.17 0 011.783.395 1.787 1.787 0 002.3-.716 6.542 6.542 0 015.625-3.23c1.313 0 2.579.39 3.66 1.125a1.787 1.787 0 002.165-.118 4.21 4.21 0 013.118-.99 1.788 1.788 0 00.32-3.56 7.79 7.79 0 00-4.688 1.064A10.04 10.04 0 0082.593 33a10.132 10.132 0 00-7.862 3.77 7.782 7.782 0 00-1.846-.22 7.79 7.79 0 00-1.98.254A10.12 10.12 0 0063.015 33c-3.122 0-6.04 1.447-7.935 3.86a7.813 7.813 0 00-4.02-.09A10.132 10.132 0 0043.198 33c-1.613 0-3.181.38-4.597 1.107A8.912 8.912 0 0034.344 33a1.787 1.787 0 000 3.574z"/></g><defs><clipPath id="clip0"><path fill="#fff" transform="translate(32.5 33)" d="M0 0h61v61H0z"/></clipPath></defs></svg>
